covers/svg/cover-payload.svg

<svg xmlns="http://www.w3.org/2000/svg" xml:space="preserve" style="fill-rule:evenodd;clip-rule:evenodd;stroke-linejoin:round;stroke-miterlimit:2" viewBox="0 0 1280 640"><path d="M0 0h1280v640H0z" style="fill:#edeff3;fill-rule:nonzero"/><path d="M1139.65 596h-9.85v-1.699l6.55-9.153h-6.15v-2.121h9.26v1.875l-6.42 8.977h6.61zm7.97-13.219c1.16 0 2.15.239 2.98.715.83.477 1.46 1.152 1.91 2.027.44.875.67 1.922.67 3.141v1.477h-8.66c.03 1.257.36 2.226 1 2.906.65.68 1.56 1.019 2.72 1.019.83 0 1.57-.078 2.23-.234.66-.164 1.35-.402 2.05-.715v2.238q-.975.458-1.98.668c-.67.141-1.48.211-2.42.211q-1.905 0-3.36-.738c-.96-.5-1.71-1.242-2.26-2.226q-.81-1.478-.81-3.668c0-1.454.25-2.688.74-3.704q.735-1.523 2.07-2.32t3.12-.797m0 2.074c-.87 0-1.57.282-2.11.844-.53.563-.84 1.387-.94 2.473h5.91q-.015-.973-.33-1.723c-.2-.5-.51-.89-.94-1.172q-.615-.422-1.59-.422m15.24-2.074c.21 0 .45.012.71.035s.48.055.67.094l-.26 2.578c-.2-.053-.4-.089-.61-.105a6 6 0 0 0-.63-.035q-.735 0-1.41.246c-.44.156-.84.398-1.18.726-.35.321-.61.723-.81 1.207s-.29 1.047-.29 1.688V596h-2.77v-12.973h2.16l.37 2.285h.13q.39-.69.96-1.265c.39-.383.82-.688 1.31-.914.52-.239 1.08-.36 1.65-.352m15.26 6.703q0 1.618-.42 2.871-.42 1.254-1.23 2.122a5.3 5.3 0 0 1-1.94 1.312c-.76.297-1.62.445-2.57.445-.89 0-1.71-.148-2.45-.445a5.5 5.5 0 0 1-1.93-1.312q-.81-.868-1.26-2.122c-.29-.835-.44-1.793-.44-2.871 0-1.429.24-2.64.74-3.632q.75-1.5 2.13-2.286c.92-.523 2.02-.785 3.29-.785 1.2 0 2.25.262 3.17.785.91.524 1.63 1.286 2.14 2.286.52 1 .77 2.21.77 3.632m-9.41 0c0 .946.12 1.754.34 2.426q.36 1.008 1.08 1.547c.49.352 1.11.527 1.88.527.76 0 1.39-.175 1.87-.527.49-.359.84-.875 1.07-1.547s.34-1.48.34-2.426c0-.945-.11-1.746-.34-2.402-.23-.664-.58-1.168-1.07-1.512-.48-.351-1.11-.527-1.88-.527-1.14 0-1.98.383-2.5 1.148-.52.766-.79 1.864-.79 3.293m19.24-6.703c1.53 0 2.77.563 3.7 1.688.94 1.125 1.4 2.797 1.4 5.015 0 1.469-.21 2.707-.65 3.715-.43 1-1.04 1.758-1.82 2.274q-1.155.76-2.7.761c-.66 0-1.23-.086-1.72-.257-.45-.155-.86-.38-1.24-.668a5 5 0 0 1-.87-.914h-.16c.04.312.07.66.11 1.043.04.374.05.718.05 1.031v5.285h-2.76v-18.727h2.25l.39 1.793h.12c.25-.367.54-.707.88-1.019.36-.313.78-.559 1.27-.739.5-.187 1.08-.281 1.75-.281m-.74 2.25q-1.14 0-1.83.457c-.45.297-.79.746-1 1.348q-.3.902-.33 2.262v.386q0 1.442.3 2.45.3.995.99 1.523c.47.344 1.11.516 1.9.516.67 0 1.23-.184 1.67-.551q.66-.551.99-1.57t.33-2.403q0-2.097-.75-3.258c-.49-.773-1.25-1.16-2.27-1.16m17.75 7.266c0 .851-.21 1.57-.62 2.156s-1.02 1.031-1.82 1.336c-.79.297-1.75.445-2.9.445-.91 0-1.69-.066-2.35-.199a8 8 0 0 1-1.84-.586v-2.379c.62.289 1.31.539 2.08.75q1.155.317 2.19.317c.91 0 1.56-.141 1.96-.422.39-.289.59-.672.59-1.149q0-.421-.24-.75c-.16-.226-.46-.457-.89-.691-.43-.242-1.07-.531-1.9-.867-.82-.328-1.51-.656-2.08-.985-.56-.328-.98-.722-1.27-1.183-.29-.469-.44-1.067-.44-1.793 0-1.149.46-2.02 1.36-2.613.92-.602 2.12-.903 3.62-.903q1.2 0 2.25.246c.72.157 1.41.387 2.09.692l-.87 2.074q-.87-.387-1.77-.633a6.3 6.3 0 0 0-1.79-.258c-.71 0-1.25.11-1.63.328-.37.219-.55.532-.55.938q0 .457.27.773.27.317.93.633c.44.211 1.06.473 1.85.785.77.297 1.44.61 2 .938.57.32 1.01.715 1.31 1.183.31.469.46 1.075.46 1.817m2.58 2.25c0-.641.16-1.09.49-1.348.34-.265.74-.398 1.22-.398s.88.133 1.22.398q.51.387.51 1.348 0 .938-.51 1.359c-.34.274-.74.41-1.22.41s-.88-.136-1.22-.41c-.33-.281-.49-.734-.49-1.359m9.74-11.52V596h-2.76v-12.973zm-1.36-4.968c.42 0 .78.113 1.09.339s.47.618.47 1.172c0 .547-.16.938-.47 1.172-.31.227-.67.34-1.09.34-.44 0-.81-.113-1.12-.34-.29-.234-.44-.625-.44-1.172 0-.554.15-.945.44-1.172.31-.226.68-.339 1.12-.339m16.79 11.425q0 1.618-.42 2.871-.42 1.254-1.23 2.122a5.4 5.4 0 0 1-1.95 1.312c-.75.297-1.61.445-2.56.445-.89 0-1.71-.148-2.45-.445a5.7 5.7 0 0 1-1.94-1.312c-.54-.579-.95-1.286-1.25-2.122q-.45-1.253-.45-2.871c0-1.429.25-2.64.74-3.632.5-1 1.21-1.762 2.14-2.286.92-.523 2.02-.785 3.29-.785 1.19 0 2.25.262 3.16.785.92.524 1.63 1.286 2.15 2.286.51 1 .77 2.21.77 3.632m-9.41 0c0 .946.11 1.754.34 2.426.24.672.59 1.188 1.08 1.547.48.352 1.11.527 1.87.527.77 0 1.39-.175 1.88-.527.48-.359.84-.875 1.07-1.547.22-.672.34-1.48.34-2.426 0-.945-.12-1.746-.34-2.402-.23-.664-.59-1.168-1.07-1.512-.49-.351-1.11-.527-1.89-.527q-1.71 0-2.49 1.148c-.53.766-.79 1.864-.79 3.293" style="fill:#1a1a1a;fill-rule:nonzero"/><path d="m337.596 179.457-96.358 36.828c-8.58 3.366-14.25 11.693-14.238 20.909v92.714l44.283-25.449v-52.131l74.217-28.475V178c-2.701.006-5.379.5-7.904 1.457m-65.528 207.628 73.432-42.322v-51.121l-113.455 65.415a10.22 10.22 0 0 0-5.045 8.745v34.249a22.4 22.4 0 0 0 3.952 12.522 22.4 22.4 0 0 0 10.286 8.162l96.358 36.828a22.4 22.4 0 0 0 7.904 1.458v-45.853z" style="fill:#323232;fill-rule:nonzero"/><path d="M459.291 279.066a9.37 9.37 0 0 0 4.708-8.24v-33.632c.013-9.217-5.658-17.544-14.238-20.909l-96.414-36.828A22.4 22.4 0 0 0 345.5 178v45.853l72.871 28.027-72.871 41.985v51.122zM353.347 459.563l96.414-36.828c8.506-3.334 14.161-11.548 14.238-20.684v-93.667l-44.283 25.561v52.859L345.5 415.168v45.853a22.4 22.4 0 0 0 7.847-1.458" style="fill:#1a1a1a;fill-rule:nonzero"/><path d="m670 295.553-6.043-6.043L640 313.467l-23.957-23.957-6.043 6.043 23.957 23.957L610 343.467l6.043 6.043L640 325.553l23.957 23.957 6.043-6.043-23.957-23.957z" style="fill:#939393;fill-rule:nonzero"/><path d="m18.068 35.925-12.4-7.153a.51.51 0 0 1-.251-.432V17.285c0-.191.211-.311.371-.221l14.397 8.307a.3.3 0 0 0 .451-.261v-5.387a.6.6 0 0 0-.301-.522L3.02 9.209a.5.5 0 0 0-.502 0L.251 10.523a.5.5 0 0 0-.251.432V31.49c0 .181.1.341.251.432l17.787 10.273c.15.09.351.09.501 0l14.938-8.628a.301.301 0 0 0 0-.522l-4.655-2.688a.59.59 0 0 0-.602 0l-9.641 5.568a.5.5 0 0 1-.501 0zM36.326 10.513 18.539.25a.5.5 0 0 0-.501 0l-9.4 5.428a.301.301 0 0 0 0 .522l4.614 2.668a.59.59 0 0 0 .602 0l4.214-2.428c.15-.09.351-.09.501 0l12.4 7.153c.15.09.251.251.251.432V25.13c0 .211.11.411.301.522l4.614 2.658a.3.3 0 0 0 .452-.261V10.955c0-.181-.1-.341-.251-.432z" style="fill-rule:nonzero" transform="matrix(6.48323 0 0 6.72537 827.589 177.271)"/></svg>

<?xml version="1.0" encoding="UTF-8" standalone="no"?>
<!DOCTYPE svg PUBLIC "-//W3C//DTD SVG 1.1//EN" "http://www.w3.org/Graphics/SVG/1.1/DTD/svg11.dtd">
<svg width="100%" height="100%" viewBox="0 0 1280 640" version="1.1" xmlns="http://www.w3.org/2000/svg" xmlns:xlink="http://www.w3.org/1999/xlink" xml:space="preserve" xmlns:serif="http://www.serif.com/" style="fill-rule:evenodd;clip-rule:evenodd;stroke-linejoin:round;stroke-miterlimit:2;">
    <rect x="0" y="0" width="1280" height="640" style="fill:rgb(237,239,243);fill-rule:nonzero;"/>
    <path d="M1139.65,596L1129.8,596L1129.8,594.301L1136.35,585.148L1130.2,585.148L1130.2,583.027L1139.46,583.027L1139.46,584.902L1133.04,593.879L1139.65,593.879L1139.65,596ZM1147.62,582.781C1148.78,582.781 1149.77,583.02 1150.6,583.496C1151.43,583.973 1152.06,584.648 1152.51,585.523C1152.95,586.398 1153.18,587.445 1153.18,588.664L1153.18,590.141L1144.52,590.141C1144.55,591.398 1144.88,592.367 1145.52,593.047C1146.17,593.727 1147.08,594.066 1148.24,594.066C1149.07,594.066 1149.81,593.988 1150.47,593.832C1151.13,593.668 1151.82,593.43 1152.52,593.117L1152.52,595.355C1151.87,595.66 1151.21,595.883 1150.54,596.023C1149.87,596.164 1149.06,596.234 1148.12,596.234C1146.85,596.234 1145.73,595.988 1144.76,595.496C1143.8,594.996 1143.05,594.254 1142.5,593.27C1141.96,592.285 1141.69,591.062 1141.69,589.602C1141.69,588.148 1141.94,586.914 1142.43,585.898C1142.92,584.883 1143.61,584.109 1144.5,583.578C1145.39,583.047 1146.43,582.781 1147.62,582.781M1147.62,584.855C1146.75,584.855 1146.05,585.137 1145.51,585.699C1144.98,586.262 1144.67,587.086 1144.57,588.172L1150.48,588.172C1150.47,587.523 1150.36,586.949 1150.15,586.449C1149.95,585.949 1149.64,585.559 1149.21,585.277C1148.8,584.996 1148.27,584.855 1147.62,584.855M1162.86,582.781C1163.07,582.781 1163.31,582.793 1163.57,582.816C1163.83,582.839 1164.05,582.871 1164.24,582.91L1163.98,585.488C1163.78,585.435 1163.58,585.399 1163.37,585.383C1163.16,585.36 1162.95,585.349 1162.74,585.348C1162.25,585.348 1161.78,585.43 1161.33,585.594C1160.89,585.75 1160.49,585.992 1160.15,586.32C1159.8,586.641 1159.54,587.043 1159.34,587.527C1159.14,588.011 1159.05,588.574 1159.05,589.215L1159.05,596L1156.28,596L1156.28,583.027L1158.44,583.027L1158.81,585.312L1158.94,585.312C1159.2,584.852 1159.52,584.43 1159.9,584.047C1160.29,583.664 1160.72,583.359 1161.21,583.133C1161.73,582.894 1162.29,582.773 1162.86,582.781M1178.12,589.484C1178.12,590.563 1177.98,591.52 1177.7,592.355C1177.42,593.191 1177.01,593.898 1176.47,594.477C1175.93,595.051 1175.27,595.499 1174.53,595.789C1173.77,596.086 1172.91,596.234 1171.96,596.234C1171.07,596.234 1170.25,596.086 1169.51,595.789C1168.78,595.495 1168.12,595.047 1167.58,594.477C1167.04,593.898 1166.62,593.191 1166.32,592.355C1166.03,591.52 1165.88,590.562 1165.88,589.484C1165.88,588.055 1166.12,586.844 1166.62,585.852C1167.12,584.852 1167.83,584.09 1168.75,583.566C1169.67,583.043 1170.77,582.781 1172.04,582.781C1173.24,582.781 1174.29,583.043 1175.21,583.566C1176.12,584.09 1176.84,584.852 1177.35,585.852C1177.87,586.852 1178.12,588.062 1178.12,589.484M1168.71,589.484C1168.71,590.43 1168.83,591.238 1169.05,591.91C1169.29,592.582 1169.65,593.098 1170.13,593.457C1170.62,593.809 1171.24,593.984 1172.01,593.984C1172.77,593.984 1173.4,593.809 1173.88,593.457C1174.37,593.098 1174.72,592.582 1174.95,591.91C1175.18,591.238 1175.29,590.43 1175.29,589.484C1175.29,588.539 1175.18,587.738 1174.95,587.082C1174.72,586.418 1174.37,585.914 1173.88,585.57C1173.4,585.219 1172.77,585.043 1172,585.043C1170.86,585.043 1170.02,585.426 1169.5,586.191C1168.98,586.957 1168.71,588.055 1168.71,589.484M1187.95,582.781C1189.48,582.781 1190.72,583.344 1191.65,584.469C1192.59,585.594 1193.05,587.266 1193.05,589.484C1193.05,590.953 1192.84,592.191 1192.4,593.199C1191.97,594.199 1191.36,594.957 1190.58,595.473C1189.81,595.98 1188.91,596.233 1187.88,596.234C1187.22,596.234 1186.65,596.148 1186.16,595.977C1185.71,595.822 1185.3,595.597 1184.92,595.309C1184.59,595.042 1184.3,594.735 1184.05,594.395L1183.89,594.395C1183.93,594.707 1183.96,595.055 1184,595.438C1184.04,595.812 1184.05,596.156 1184.05,596.469L1184.05,601.754L1181.29,601.754L1181.29,583.027L1183.54,583.027L1183.93,584.82L1184.05,584.82C1184.3,584.453 1184.59,584.113 1184.93,583.801C1185.29,583.488 1185.71,583.242 1186.2,583.062C1186.7,582.875 1187.28,582.781 1187.95,582.781M1187.21,585.031C1186.45,585.031 1185.84,585.183 1185.38,585.488C1184.93,585.785 1184.59,586.234 1184.38,586.836C1184.18,587.437 1184.07,588.191 1184.05,589.098L1184.05,589.484C1184.05,590.445 1184.15,591.262 1184.35,591.934C1184.55,592.597 1184.88,593.105 1185.34,593.457C1185.81,593.801 1186.45,593.973 1187.24,593.973C1187.91,593.973 1188.47,593.789 1188.91,593.422C1189.35,593.055 1189.68,592.531 1189.9,591.852C1190.12,591.173 1190.23,590.372 1190.23,589.449C1190.23,588.051 1189.98,586.965 1189.48,586.191C1188.99,585.418 1188.23,585.031 1187.21,585.031M1204.96,592.297C1204.96,593.148 1204.75,593.867 1204.34,594.453C1203.93,595.039 1203.32,595.484 1202.52,595.789C1201.73,596.086 1200.77,596.234 1199.62,596.234C1198.71,596.234 1197.93,596.168 1197.27,596.035C1196.63,595.915 1196.02,595.718 1195.43,595.449L1195.43,593.07C1196.05,593.359 1196.74,593.609 1197.51,593.82C1198.28,594.031 1199.01,594.137 1199.7,594.137C1200.61,594.137 1201.26,593.996 1201.66,593.715C1202.05,593.426 1202.25,593.043 1202.25,592.566C1202.25,592.285 1202.17,592.035 1202.01,591.816C1201.85,591.59 1201.55,591.359 1201.12,591.125C1200.69,590.883 1200.05,590.594 1199.22,590.258C1198.4,589.93 1197.71,589.602 1197.14,589.273C1196.58,588.945 1196.16,588.551 1195.87,588.09C1195.58,587.621 1195.43,587.023 1195.43,586.297C1195.43,585.148 1195.89,584.277 1196.79,583.684C1197.71,583.082 1198.91,582.781 1200.41,582.781C1201.21,582.781 1201.96,582.863 1202.66,583.027C1203.38,583.184 1204.07,583.414 1204.75,583.719L1203.88,585.793C1203.3,585.535 1202.71,585.324 1202.11,585.16C1201.53,584.988 1200.93,584.901 1200.32,584.902C1199.61,584.902 1199.07,585.012 1198.69,585.23C1198.32,585.449 1198.14,585.762 1198.14,586.168C1198.14,586.473 1198.23,586.73 1198.41,586.941C1198.59,587.152 1198.9,587.363 1199.34,587.574C1199.78,587.785 1200.4,588.047 1201.19,588.359C1201.96,588.656 1202.63,588.969 1203.19,589.297C1203.76,589.617 1204.2,590.012 1204.5,590.48C1204.81,590.949 1204.96,591.555 1204.96,592.297M1207.54,594.547C1207.54,593.906 1207.7,593.457 1208.03,593.199C1208.37,592.934 1208.77,592.801 1209.25,592.801C1209.73,592.801 1210.13,592.934 1210.47,593.199C1210.81,593.457 1210.98,593.906 1210.98,594.547C1210.98,595.172 1210.81,595.625 1210.47,595.906C1210.13,596.18 1209.73,596.316 1209.25,596.316C1208.77,596.316 1208.37,596.18 1208.03,595.906C1207.7,595.625 1207.54,595.172 1207.54,594.547M1217.28,583.027L1217.28,596L1214.52,596L1214.52,583.027L1217.28,583.027ZM1215.92,578.059C1216.34,578.059 1216.7,578.172 1217.01,578.398C1217.32,578.624 1217.48,579.016 1217.48,579.57C1217.48,580.117 1217.32,580.508 1217.01,580.742C1216.7,580.969 1216.34,581.082 1215.92,581.082C1215.48,581.082 1215.11,580.969 1214.8,580.742C1214.51,580.508 1214.36,580.117 1214.36,579.57C1214.36,579.016 1214.51,578.625 1214.8,578.398C1215.11,578.172 1215.48,578.059 1215.92,578.059M1232.71,589.484C1232.71,590.563 1232.57,591.52 1232.29,592.355C1232.01,593.191 1231.6,593.898 1231.06,594.477C1230.51,595.052 1229.85,595.5 1229.11,595.789C1228.36,596.086 1227.5,596.234 1226.55,596.234C1225.66,596.234 1224.84,596.086 1224.1,595.789C1223.37,595.491 1222.71,595.044 1222.16,594.477C1221.62,593.898 1221.21,593.191 1220.91,592.355C1220.61,591.52 1220.46,590.563 1220.46,589.484C1220.46,588.055 1220.71,586.844 1221.2,585.852C1221.7,584.852 1222.41,584.09 1223.34,583.566C1224.26,583.043 1225.36,582.781 1226.63,582.781C1227.82,582.781 1228.88,583.043 1229.79,583.566C1230.71,584.09 1231.42,584.852 1231.94,585.852C1232.45,586.852 1232.71,588.062 1232.71,589.484M1223.3,589.484C1223.3,590.43 1223.41,591.238 1223.64,591.91C1223.88,592.582 1224.23,593.098 1224.72,593.457C1225.2,593.809 1225.83,593.984 1226.59,593.984C1227.36,593.984 1227.98,593.809 1228.47,593.457C1228.95,593.098 1229.31,592.582 1229.54,591.91C1229.76,591.238 1229.88,590.43 1229.88,589.484C1229.88,588.539 1229.76,587.738 1229.54,587.082C1229.31,586.418 1228.95,585.914 1228.47,585.57C1227.98,585.219 1227.36,585.043 1226.58,585.043C1225.44,585.043 1224.61,585.426 1224.09,586.191C1223.56,586.957 1223.3,588.055 1223.3,589.484" style="fill:rgb(26,26,26);fill-rule:nonzero;"/>
    <path d="M337.596,179.457L241.238,216.285C232.658,219.651 226.988,227.978 227,237.194L227,329.908L271.283,304.459L271.283,252.328L345.5,223.853L345.5,178C342.799,178.006 340.121,178.5 337.596,179.457M272.068,387.085L345.5,344.763L345.5,293.642L232.045,359.057C228.943,360.876 227.022,364.206 227,367.802L227,402.051C227.037,406.526 228.414,410.888 230.952,414.573C233.488,418.26 237.072,421.103 241.238,422.735L337.596,459.563C340.121,460.522 342.799,461.016 345.5,461.021L345.5,415.168L272.068,387.085Z" style="fill:rgb(50,50,50);fill-rule:nonzero;"/>
    <path d="M459.291,279.066C462.236,277.38 464.042,274.219 463.999,270.826L463.999,237.194C464.012,227.977 458.341,219.65 449.761,216.285L353.347,179.457C350.84,178.506 348.182,178.012 345.5,178L345.5,223.853L418.371,251.88L345.5,293.865L345.5,344.987L459.291,279.066ZM353.347,459.563L449.761,422.735C458.267,419.401 463.922,411.187 463.999,402.051L463.999,308.384L419.716,333.945L419.716,386.804L345.5,415.168L345.5,461.021C348.182,461.009 350.84,460.515 353.347,459.563" style="fill:rgb(26,26,26);fill-rule:nonzero;"/>
    <path d="M670,295.553L663.957,289.51L640,313.467L616.043,289.51L610,295.553L633.957,319.51L610,343.467L616.043,349.51L640,325.553L663.957,349.51L670,343.467L646.043,319.51L670,295.553Z" style="fill:rgb(147,147,147);fill-rule:nonzero;"/>
    <g transform="matrix(6.48323,0,0,6.72537,827.589,177.271)">
        <path d="M18.068,35.925L5.668,28.772C5.518,28.681 5.417,28.521 5.417,28.34L5.417,17.285C5.417,17.094 5.628,16.974 5.788,17.064L20.185,25.371C20.385,25.491 20.636,25.341 20.636,25.11L20.636,19.723C20.636,19.512 20.526,19.311 20.335,19.201L3.02,9.209C2.869,9.119 2.669,9.119 2.518,9.209L0.251,10.523C0.1,10.614 0,10.774 0,10.955L0,31.49C0,31.671 0.1,31.831 0.251,31.922L18.038,42.195C18.188,42.285 18.389,42.285 18.539,42.195L33.477,33.567C33.678,33.447 33.678,33.166 33.477,33.045L28.822,30.357C28.632,30.246 28.411,30.246 28.22,30.357L18.579,35.925C18.429,36.015 18.228,36.015 18.078,35.925L18.068,35.925Z" style="fill-rule:nonzero;"/>
    </g>
    <g transform="matrix(6.48323,0,0,6.72537,827.589,177.271)">
        <path d="M36.326,10.513L18.539,0.25C18.389,0.16 18.188,0.16 18.038,0.25L8.638,5.678C8.437,5.798 8.437,6.079 8.638,6.2L13.252,8.868C13.443,8.978 13.664,8.978 13.854,8.868L18.068,6.44C18.218,6.35 18.419,6.35 18.569,6.44L30.969,13.593C31.119,13.683 31.22,13.844 31.22,14.025L31.22,25.13C31.22,25.341 31.33,25.541 31.521,25.652L36.135,28.31C36.336,28.431 36.587,28.28 36.587,28.049L36.587,10.955C36.587,10.774 36.487,10.614 36.336,10.523L36.326,10.513Z" style="fill-rule:nonzero;"/>
    </g>
</svg>
